src/travel-places/transport-water/1F6F3.svg

<?xml version="1.0" encoding="UTF-8"?>
<svg id="emoji" xmlns="http://www.w3.org/2000/svg" viewBox="0 0 72 72">
  <g id="grid">
    <path d="m68,4v64H4V4h64m4-4H0v72h72V0Z" fill="#b3b3b3"/>
    <path d="m12.923,10.9583h46.1539c1.0621,0,1.9231.861,1.9231,1.9231h0v46.1538c0,1.0621-.861,1.9231-1.9231,1.9231H12.9231c-1.0621,0-1.9231-.861-1.9231-1.9231h0V12.8813c0-1.062.861-1.923,1.923-1.923h0Z" fill="none" stroke="#00a5ff" stroke-miterlimit="10" stroke-width=".1"/>
    <path d="m18.2537,4h35.4926c1.2447,0,2.2537,1.009,2.2537,2.2537v59.4926c0,1.2447-1.009,2.2537-2.2537,2.2537H18.2537c-1.2447,0-2.2537-1.009-2.2537-2.2537V6.2537c0-1.2447,1.009-2.2537,2.2537-2.2537Z" fill="none" stroke="#00a5ff" stroke-miterlimit="10" stroke-width=".1"/>
    <path d="m68,18.2537v35.4926c0,1.2447-1.009,2.2537-2.2537,2.2537H6.2537c-1.2447,0-2.2537-1.009-2.2537-2.2537V18.2537c0-1.2447,1.009-2.2537,2.2537-2.2537h59.4926c1.2447,0,2.2537,1.009,2.2537,2.2537Z" fill="none" stroke="#00a5ff" stroke-miterlimit="10" stroke-width=".1"/>
    <circle cx="36" cy="36" r="29" fill="none" stroke="#00a5ff" stroke-miterlimit="10" stroke-width=".1"/>
  </g>
  <g id="color">
    <polyline points="68.0071 47.866 68 68 4 68 4 48.2353" fill="none"/>
    <path d="m68,47v21H4v-21h1c3,0,9,3,15,3s10-3,16-3,11,3,16,3,7-3,15-3h1Z" fill="#92d3f5"/>
    <path d="m37.5,10.5v5h-4v-5c0-.5523.4477-1,1-1h2c.5523,0,1,.4477,1,1Z" fill="#3f3f3f"/>
    <path d="m48.9045,31h-26.809l5.9312-14.8705c.1516-.3801.5196-.6295.9288-.6295h13.089c.4092,0,.7772.2494.9288.6295l5.9312,14.8705Z" fill="#fff"/>
    <path d="m55,34.7485c-8.6667,3.6647-7.2222,21.9045-10.1111,24.653-2.0799,1.9789-6.4133,3.4815-8.6667,4.1686-.2743.0825-.52.1557-.7222.2199-.2022-.0642-.4479-.1374-.7222-.2199-2.2534-.6871-6.5868-2.1897-8.6667-4.1686-2.8889-2.7485-1.4444-20.9883-10.1111-24.653h39Z" fill="#3f3f3f"/>
    <path d="m55,32v2.7485H16v-2.7485c0-.5523.4477-1,1-1h37c.5523,0,1,.4477,1,1Z" fill="#ea5a47"/>
  </g>
  <g id="line">
    <path d="m47.4115,49.3367c1.5483.386,3.0684.6633,4.5885.6633,5,0,7-3,15-3" fill="none" stroke="#000" stroke-linecap="round" stroke-linejoin="round" stroke-width="2"/>
    <path d="m5,47c3,0,9,3,15,3,1.292,0,2.4913-.1391,3.6378-.3574" fill="none" stroke="#000" stroke-linecap="round" stroke-linejoin="round" stroke-width="2"/>
    <path d="m37.5,10.5v5h-4v-5c0-.5523.4477-1,1-1h2c.5523,0,1,.4477,1,1Z" fill="none" stroke="#000" stroke-linecap="round" stroke-linejoin="round" stroke-width="2"/>
    <path d="m48.9045,31h-26.809l5.9312-14.8705c.1516-.3801.5196-.6295.9288-.6295h13.089c.4092,0,.7772.2494.9288.6295l5.9312,14.8705Z" fill="none" stroke="#000" stroke-linecap="round" stroke-linejoin="round" stroke-width="2"/>
    <path d="m23.6377,49.6421c-1.0449-5.989-2.7008-12.806-7.6377-14.8936h39c-8.6667,3.6647-7.2222,21.9045-10.1111,24.653-2.0799,1.9789-6.4133,3.4815-8.6667,4.1686-.2743.0825-.52.1557-.7222.2199-.2022-.0642-.4479-.1374-.7222-.2199-2.2534-.6871-6.5868-2.1897-8.6667-4.1686-1.2433-1.1828-1.6839-5.2348-2.4734-9.7594" fill="none" stroke="#000" stroke-linecap="round" stroke-linejoin="round" stroke-width="2"/>
    <path d="m55,32v2.7485H16v-2.7485c0-.5523.4477-1,1-1h37c.5523,0,1,.4477,1,1Z" fill="none" stroke="#000" stroke-linecap="round" stroke-linejoin="round" stroke-width="2"/>
    <line x1="35.5" y1="63.79" x2="35.5" y2="32" fill="none" stroke="#000" stroke-linecap="round" stroke-linejoin="round" stroke-width="2"/>
    <line x1="30" y1="21" x2="41" y2="21" fill="none" stroke="#000" stroke-linecap="round" stroke-linejoin="round" stroke-width="2"/>
    <line x1="28" y1="26" x2="43" y2="26" fill="none" stroke="#000" stroke-linecap="round" stroke-linejoin="round" stroke-width="2"/>
  </g>
</svg>

<svg id="emoji" viewBox="0 0 72 72" version="1.1" xmlns="http://www.w3.org/2000/svg">
  <g id="grid">
    <path fill="#B3B3B3" d="M68,4v64H4V4H68 M72,0H0v72h72V0z"/>
    <path fill="none" stroke="#00A5FF" stroke-miterlimit="10" stroke-width="0.1" d="M12.923,10.9583h46.1539 c1.0621,0,1.9231,0.861,1.9231,1.9231v0v46.1538c0,1.0621-0.861,1.9231-1.9231,1.9231H12.9231 c-1.0621,0-1.9231-0.861-1.9231-1.9231l0,0V12.8813C11,11.8193,11.861,10.9583,12.923,10.9583L12.923,10.9583z"/>
    <path fill="none" stroke="#00A5FF" stroke-miterlimit="10" stroke-width="0.1" d="M18.2537,4h35.4926C54.991,4,56,5.009,56,6.2537 v59.4926C56,66.991,54.991,68,53.7463,68H18.2537C17.009,68,16,66.991,16,65.7463V6.2537C16,5.009,17.009,4,18.2537,4z"/>
    <path fill="none" stroke="#00A5FF" stroke-miterlimit="10" stroke-width="0.1" d="M68,18.2537v35.4926 C68,54.991,66.991,56,65.7463,56H6.2537C5.009,56,4,54.991,4,53.7463V18.2537C4,17.009,5.009,16,6.2537,16h59.4926 C66.991,16,68,17.009,68,18.2537z"/>
    <circle cx="36" cy="36" r="29" fill="none" stroke="#00A5FF" stroke-miterlimit="10" stroke-width="0.1"/>
  </g>
  <g id="color">
    <polyline fill="none" points="69,48.2353 68,68 4,68 4,48.2353"/>
    <path fill="#92D3F5" d="M68,47v21H4V47h1c3,0,9,3,15,3s10-3,16-3s11,3,16,3s7-3,15-3H68z"/>
    <path fill="#3F3F3F" d="M37.5,10.5v5h-4v-5c0-0.5523,0.4477-1,1-1h2C37.0523,9.5,37.5,9.9477,37.5,10.5z"/>
    <path fill="#FFFFFF" d="M48.9045,31h-26.809l5.9312-14.8705c0.1516-0.3801,0.5196-0.6295,0.9288-0.6295h13.089 c0.4092,0,0.7772,0.2494,0.9288,0.6295L48.9045,31z"/>
    <path fill="#3F3F3F" d="M55,34.7485c-8.6667,3.6647-7.2222,21.9045-10.1111,24.653c-2.0799,1.9789-6.4133,3.4815-8.6667,4.1686 c-0.2743,0.0825-0.52,0.1557-0.7222,0.2199c-0.2022-0.0642-0.4479-0.1374-0.7222-0.2199 c-2.2534-0.6871-6.5868-2.1897-8.6667-4.1686C23.2222,56.653,24.6667,38.4132,16,34.7485H55z"/>
    <path fill="#EA5A47" d="M55,32v2.7485H16V32c0-0.5523,0.4477-1,1-1h37C54.5523,31,55,31.4477,55,32z"/>
  </g>
  <g id="hair"/>
  <g id="skin"/>
  <g id="skin-shadow"/>
  <g id="line">
    <path fill="none" stroke="#000000" stroke-linecap="round" stroke-linejoin="round" stroke-miterlimit="10" stroke-width="2" d="M47.4115,49.3367C48.9598,49.7227,50.4799,50,52,50c5,0,7-3,15-3"/>
    <path fill="none" stroke="#000000" stroke-linecap="round" stroke-linejoin="round" stroke-miterlimit="10" stroke-width="2" d="M5,47c3,0,9,3,15,3c1.292,0,2.4913-0.1391,3.6378-0.3574"/>
    <path fill="none" stroke="#000000" stroke-linecap="round" stroke-linejoin="round" stroke-miterlimit="10" stroke-width="2" d="M37.5,10.5v5h-4v-5c0-0.5523,0.4477-1,1-1h2C37.0523,9.5,37.5,9.9477,37.5,10.5z"/>
    <path fill="none" stroke="#000000" stroke-linecap="round" stroke-linejoin="round" stroke-miterlimit="10" stroke-width="2" d="M48.9045,31h-26.809l5.9312-14.8705c0.1516-0.3801,0.5196-0.6295,0.9288-0.6295h13.089c0.4092,0,0.7772,0.2494,0.9288,0.6295 L48.9045,31z"/>
    <path fill="none" stroke="#000000" stroke-linecap="round" stroke-linejoin="round" stroke-miterlimit="10" stroke-width="2" d="M23.6377,49.6421c-1.0449-5.989-2.7008-12.806-7.6377-14.8936h39c-8.6667,3.6647-7.2222,21.9045-10.1111,24.653 c-2.0799,1.9789-6.4133,3.4815-8.6667,4.1686c-0.2743,0.0825-0.52,0.1557-0.7222,0.2199 c-0.2022-0.0642-0.4479-0.1374-0.7222-0.2199c-2.2534-0.6871-6.5868-2.1897-8.6667-4.1686 C24.8678,58.2187,24.4272,54.1667,23.6377,49.6421"/>
    <path fill="none" stroke="#000000" stroke-linecap="round" stroke-linejoin="round" stroke-miterlimit="10" stroke-width="2" d="M55,32v2.7485H16V32c0-0.5523,0.4477-1,1-1h37C54.5523,31,55,31.4477,55,32z"/>
    <line x1="35.5" x2="35.5" y1="63.79" y2="32" fill="none" stroke="#000000" stroke-linecap="round" stroke-linejoin="round" stroke-miterlimit="10" stroke-width="2"/>
    <line x1="30" x2="41" y1="21" y2="21" fill="none" stroke="#000000" stroke-linecap="round" stroke-linejoin="round" stroke-miterlimit="10" stroke-width="2"/>
    <line x1="28" x2="43" y1="26" y2="26" fill="none" stroke="#000000" stroke-linecap="round" stroke-linejoin="round" stroke-miterlimit="10" stroke-width="2"/>
  </g>
</svg>
